{
  "type": "map",
  "version": "1.10",
  "tiledversion": "1.11.2",
  "orientation": "orthogonal",
  "renderorder": "right-down",
  "infinite": false,
  "width": 96,
  "height": 64,
  "tilewidth": 16,
  "tileheight": 16,
  "nextobjectid": 52,
  "nextlayerid": 52,
  "properties": [
    {
      "name": "mapId",
      "type": "string",
      "value": "lindenhafen"
    },
    {
      "name": "navigationVersion",
      "type": "int",
      "value": 1
    }
  ],
  "layers": [
    {
      "id": 1,
      "name": "Painting",
      "type": "imagelayer",
      "image": "../../web/public/assets/lindenhafen-terrain.webp",
      "visible": true
    },
    {
      "id": 2,
      "name": "Walkable",
      "type": "objectgroup",
      "color": "#7700aa55",
      "opacity": 0.35,
      "visible": true,
      "objects": [
        {
          "id": 3,
          "name": "walkable-1",
          "x": 0,
          "y": 0,
          "polygon": [
            {
              "x": 552,
              "y": 480
            },
            {
              "x": 781,
              "y": 385
            },
            {
              "x": 917,
              "y": 425
            },
            {
              "x": 932,
              "y": 518
            },
            {
              "x": 1083,
              "y": 544
            },
            {
              "x": 1117,
              "y": 560
            },
            {
              "x": 999,
              "y": 650
            },
            {
              "x": 900,
              "y": 746
            },
            {
              "x": 837,
              "y": 669
            },
            {
              "x": 746,
              "y": 640
            },
            {
              "x": 627,
              "y": 619
            },
            {
              "x": 598,
              "y": 586
            },
            {
              "x": 513,
              "y": 531
            }
          ]
        },
        {
          "id": 4,
          "name": "walkable-2",
          "x": 0,
          "y": 0,
          "polygon": [
            {
              "x": 420,
              "y": 454
            },
            {
              "x": 499,
              "y": 499
            },
            {
              "x": 582,
              "y": 511
            },
            {
              "x": 699,
              "y": 470
            },
            {
              "x": 775,
              "y": 415
            },
            {
              "x": 818,
              "y": 390
            },
            {
              "x": 794,
              "y": 358
            },
            {
              "x": 772,
              "y": 327
            },
            {
              "x": 752,
              "y": 320
            },
            {
              "x": 733,
              "y": 380
            },
            {
              "x": 697,
              "y": 416
            },
            {
              "x": 629,
              "y": 453
            },
            {
              "x": 555,
              "y": 465
            },
            {
              "x": 511,
              "y": 445
            },
            {
              "x": 448,
              "y": 407
            }
          ]
        },
        {
          "id": 5,
          "name": "walkable-3",
          "x": 0,
          "y": 0,
          "polygon": [
            {
              "x": 748,
              "y": 334
            },
            {
              "x": 762,
              "y": 266
            },
            {
              "x": 823,
              "y": 221
            },
            {
              "x": 911,
              "y": 194
            },
            {
              "x": 1003,
              "y": 133
            },
            {
              "x": 1039,
              "y": 108
            },
            {
              "x": 1071,
              "y": 134
            },
            {
              "x": 1072,
              "y": 187
            },
            {
              "x": 985,
              "y": 224
            },
            {
              "x": 902,
              "y": 262
            },
            {
              "x": 841,
              "y": 299
            },
            {
              "x": 835,
              "y": 360
            },
            {
              "x": 812,
              "y": 405
            }
          ]
        },
        {
          "id": 6,
          "name": "walkable-4",
          "x": 0,
          "y": 0,
          "polygon": [
            {
              "x": 1008,
              "y": 222
            },
            {
              "x": 1082,
              "y": 213
            },
            {
              "x": 1184,
              "y": 255
            },
            {
              "x": 1268,
              "y": 300
            },
            {
              "x": 1288,
              "y": 334
            },
            {
              "x": 1234,
              "y": 351
            },
            {
              "x": 1166,
              "y": 312
            },
            {
              "x": 1040,
              "y": 267
            }
          ]
        },
        {
          "id": 7,
          "name": "walkable-5",
          "x": 0,
          "y": 0,
          "polygon": [
            {
              "x": 1290,
              "y": 312
            },
            {
              "x": 1370,
              "y": 342
            },
            {
              "x": 1452,
              "y": 333
            },
            {
              "x": 1536,
              "y": 296
            },
            {
              "x": 1536,
              "y": 343
            },
            {
              "x": 1445,
              "y": 392
            },
            {
              "x": 1391,
              "y": 385
            },
            {
              "x": 1322,
              "y": 352
            }
          ]
        },
        {
          "id": 8,
          "name": "walkable-6",
          "x": 0,
          "y": 0,
          "polygon": [
            {
              "x": 1050,
              "y": 556
            },
            {
              "x": 1170,
              "y": 522
            },
            {
              "x": 1232,
              "y": 490
            },
            {
              "x": 1274,
              "y": 446
            },
            {
              "x": 1286,
              "y": 396
            },
            {
              "x": 1260,
              "y": 370
            },
            {
              "x": 1235,
              "y": 364
            },
            {
              "x": 1210,
              "y": 396
            },
            {
              "x": 1215,
              "y": 452
            },
            {
              "x": 1180,
              "y": 480
            },
            {
              "x": 1086,
              "y": 521
            }
          ]
        },
        {
          "id": 9,
          "name": "walkable-7",
          "x": 0,
          "y": 0,
          "polygon": [
            {
              "x": 1004.790888382688,
              "y": 697.0956719817767
            },
            {
              "x": 996,
              "y": 709
            },
            {
              "x": 981,
              "y": 756
            },
            {
              "x": 1062,
              "y": 812
            },
            {
              "x": 1172,
              "y": 850
            },
            {
              "x": 1245,
              "y": 844
            },
            {
              "x": 1263,
              "y": 811
            },
            {
              "x": 1186,
              "y": 780
            },
            {
              "x": 1171,
              "y": 796
            },
            {
              "x": 1081,
              "y": 785
            },
            {
              "x": 1034,
              "y": 757
            },
            {
              "x": 1018,
              "y": 711
            }
          ]
        },
        {
          "id": 10,
          "name": "walkable-8",
          "x": 0,
          "y": 0,
          "polygon": [
            {
              "x": 1004.790888382688,
              "y": 697.0956719817767
            },
            {
              "x": 999,
              "y": 691
            },
            {
              "x": 953,
              "y": 627
            },
            {
              "x": 1039,
              "y": 570
            },
            {
              "x": 1115,
              "y": 569
            },
            {
              "x": 1088,
              "y": 616
            },
            {
              "x": 1044,
              "y": 644
            }
          ]
        },
        {
          "id": 11,
          "name": "walkable-9",
          "x": 0,
          "y": 0,
          "polygon": [
            {
              "x": 388,
              "y": 776
            },
            {
              "x": 414,
              "y": 730
            },
            {
              "x": 461,
              "y": 691
            },
            {
              "x": 510,
              "y": 663
            },
            {
              "x": 559,
              "y": 634
            },
            {
              "x": 610,
              "y": 616
            },
            {
              "x": 650,
              "y": 632
            },
            {
              "x": 581,
              "y": 670
            },
            {
              "x": 520,
              "y": 710
            },
            {
              "x": 467,
              "y": 748
            },
            {
              "x": 425,
              "y": 789
            }
          ]
        },
        {
          "id": 12,
          "name": "walkable-10",
          "x": 0,
          "y": 0,
          "polygon": [
            {
              "x": 342,
              "y": 759
            },
            {
              "x": 405,
              "y": 774
            },
            {
              "x": 435,
              "y": 799
            },
            {
              "x": 462,
              "y": 842
            },
            {
              "x": 531,
              "y": 867
            },
            {
              "x": 621,
              "y": 912
            },
            {
              "x": 676,
              "y": 922
            },
            {
              "x": 684,
              "y": 956
            },
            {
              "x": 586,
              "y": 939
            },
            {
              "x": 500,
              "y": 901
            },
            {
              "x": 425,
              "y": 867
            },
            {
              "x": 365,
              "y": 825
            },
            {
              "x": 311,
              "y": 792
            }
          ]
        },
        {
          "id": 13,
          "name": "walkable-11",
          "x": 0,
          "y": 0,
          "polygon": [
            {
              "x": 678,
              "y": 904
            },
            {
              "x": 771,
              "y": 892
            },
            {
              "x": 846,
              "y": 861
            },
            {
              "x": 902,
              "y": 814
            },
            {
              "x": 939,
              "y": 777
            },
            {
              "x": 969,
              "y": 737
            },
            {
              "x": 1010,
              "y": 758
            },
            {
              "x": 995,
              "y": 803
            },
            {
              "x": 935,
              "y": 851
            },
            {
              "x": 884,
              "y": 896
            },
            {
              "x": 816,
              "y": 938
            },
            {
              "x": 725,
              "y": 984
            },
            {
              "x": 688,
              "y": 967
            }
          ]
        },
        {
          "id": 14,
          "name": "walkable-12",
          "x": 0,
          "y": 0,
          "polygon": [
            {
              "x": 971,
              "y": 785
            },
            {
              "x": 1049,
              "y": 814
            },
            {
              "x": 1135,
              "y": 851
            },
            {
              "x": 1266,
              "y": 876
            },
            {
              "x": 1385,
              "y": 950
            },
            {
              "x": 1440,
              "y": 986
            },
            {
              "x": 1416,
              "y": 1023
            },
            {
              "x": 1330,
              "y": 993
            },
            {
              "x": 1230,
              "y": 941
            },
            {
              "x": 1124,
              "y": 912
            },
            {
              "x": 1032,
              "y": 873
            },
            {
              "x": 959,
              "y": 838
            }
          ]
        },
        {
          "id": 15,
          "name": "walkable-13",
          "x": 0,
          "y": 0,
          "polygon": [
            {
              "x": 546,
              "y": 522
            },
            {
              "x": 479,
              "y": 500
            },
            {
              "x": 428,
              "y": 466
            },
            {
              "x": 373,
              "y": 427
            },
            {
              "x": 342,
              "y": 389
            },
            {
              "x": 353,
              "y": 335
            },
            {
              "x": 375,
              "y": 320
            },
            {
              "x": 393,
              "y": 347
            },
            {
              "x": 381,
              "y": 385
            },
            {
              "x": 415,
              "y": 420
            },
            {
              "x": 465,
              "y": 443
            },
            {
              "x": 511,
              "y": 470
            },
            {
              "x": 572,
              "y": 491
            }
          ]
        },
        {
          "id": 16,
          "name": "walkable-14",
          "x": 0,
          "y": 0,
          "polygon": [
            {
              "x": 94,
              "y": 370
            },
            {
              "x": 143,
              "y": 393
            },
            {
              "x": 207,
              "y": 438
            },
            {
              "x": 263,
              "y": 449
            },
            {
              "x": 331,
              "y": 422
            },
            {
              "x": 347,
              "y": 392
            },
            {
              "x": 364,
              "y": 425
            },
            {
              "x": 316,
              "y": 463
            },
            {
              "x": 250,
              "y": 487
            },
            {
              "x": 180,
              "y": 469
            },
            {
              "x": 105,
              "y": 427
            },
            {
              "x": 74,
              "y": 390
            }
          ]
        },
        {
          "id": 17,
          "name": "walkable-15",
          "x": 0,
          "y": 0,
          "polygon": [
            {
              "x": 125,
              "y": 306
            },
            {
              "x": 166,
              "y": 310
            },
            {
              "x": 210,
              "y": 318
            },
            {
              "x": 251,
              "y": 309
            },
            {
              "x": 287,
              "y": 287
            },
            {
              "x": 326,
              "y": 292
            },
            {
              "x": 354,
              "y": 320
            },
            {
              "x": 326,
              "y": 344
            },
            {
              "x": 278,
              "y": 350
            },
            {
              "x": 245,
              "y": 359
            },
            {
              "x": 179,
              "y": 353
            },
            {
              "x": 122,
              "y": 343
            },
            {
              "x": 105,
              "y": 331
            }
          ]
        },
        {
          "id": 18,
          "name": "walkable-16",
          "x": 0,
          "y": 0,
          "polygon": [
            {
              "x": 428,
              "y": 466
            },
            {
              "x": 459,
              "y": 475
            },
            {
              "x": 475,
              "y": 525
            },
            {
              "x": 511,
              "y": 558
            },
            {
              "x": 545,
              "y": 584
            },
            {
              "x": 561,
              "y": 614
            },
            {
              "x": 510,
              "y": 656
            },
            {
              "x": 458,
              "y": 686
            },
            {
              "x": 425,
              "y": 718
            },
            {
              "x": 401,
              "y": 724
            },
            {
              "x": 410,
              "y": 681
            },
            {
              "x": 446,
              "y": 641
            },
            {
              "x": 465,
              "y": 605
            },
            {
              "x": 423,
              "y": 565
            },
            {
              "x": 396,
              "y": 543
            },
            {
              "x": 397,
              "y": 491
            }
          ]
        },
        {
          "id": 19,
          "name": "walkable-17",
          "x": 0,
          "y": 0,
          "polygon": [
            {
              "x": 230,
              "y": 726
            },
            {
              "x": 271,
              "y": 733
            },
            {
              "x": 309,
              "y": 740
            },
            {
              "x": 350,
              "y": 737
            },
            {
              "x": 390,
              "y": 757
            },
            {
              "x": 392,
              "y": 799
            },
            {
              "x": 344,
              "y": 817
            },
            {
              "x": 310,
              "y": 796
            },
            {
              "x": 253,
              "y": 773
            },
            {
              "x": 219,
              "y": 753
            }
          ]
        },
        {
          "id": 20,
          "name": "walkable-18",
          "x": 0,
          "y": 0,
          "polygon": [
            {
              "x": 595,
              "y": 639
            },
            {
              "x": 625,
              "y": 650
            },
            {
              "x": 641,
              "y": 678
            },
            {
              "x": 651,
              "y": 706
            },
            {
              "x": 671,
              "y": 717
            },
            {
              "x": 666,
              "y": 741
            },
            {
              "x": 636,
              "y": 744
            },
            {
              "x": 613,
              "y": 718
            },
            {
              "x": 610,
              "y": 693
            },
            {
              "x": 594,
              "y": 669
            }
          ]
        },
        {
          "id": 21,
          "name": "walkable-19",
          "x": 0,
          "y": 0,
          "polygon": [
            {
              "x": 615,
              "y": 720
            },
            {
              "x": 644,
              "y": 706
            },
            {
              "x": 693,
              "y": 703
            },
            {
              "x": 733,
              "y": 716
            },
            {
              "x": 758,
              "y": 741
            },
            {
              "x": 749,
              "y": 776
            },
            {
              "x": 720,
              "y": 795
            },
            {
              "x": 675,
              "y": 800
            },
            {
              "x": 635,
              "y": 783
            },
            {
              "x": 610,
              "y": 754
            }
          ]
        },
        {
          "id": 22,
          "name": "walkable-20",
          "x": 0,
          "y": 0,
          "polygon": [
            {
              "x": 987,
              "y": 207
            },
            {
              "x": 1026,
              "y": 202
            },
            {
              "x": 1053,
              "y": 227
            },
            {
              "x": 1027,
              "y": 249
            },
            {
              "x": 997,
              "y": 242
            }
          ]
        },
        {
          "id": 23,
          "name": "walkable-21",
          "x": 0,
          "y": 0,
          "polygon": [
            {
              "x": 331,
              "y": 320
            },
            {
              "x": 360,
              "y": 318
            },
            {
              "x": 375,
              "y": 344
            },
            {
              "x": 349,
              "y": 359
            },
            {
              "x": 330,
              "y": 345
            }
          ]
        },
        {
          "id": 24,
          "name": "walkable-22",
          "x": 0,
          "y": 0,
          "polygon": [
            {
              "x": 1223,
              "y": 329
            },
            {
              "x": 1290,
              "y": 319
            },
            {
              "x": 1331,
              "y": 339
            },
            {
              "x": 1320,
              "y": 371
            },
            {
              "x": 1280,
              "y": 402
            },
            {
              "x": 1247,
              "y": 385
            }
          ]
        },
        {
          "id": 25,
          "name": "walkable-23",
          "x": 0,
          "y": 0,
          "polygon": [
            {
              "x": 583,
              "y": 604
            },
            {
              "x": 625,
              "y": 599
            },
            {
              "x": 654,
              "y": 621
            },
            {
              "x": 636,
              "y": 646
            },
            {
              "x": 597,
              "y": 647
            },
            {
              "x": 578,
              "y": 628
            }
          ]
        },
        {
          "id": 26,
          "name": "walkable-24",
          "x": 0,
          "y": 0,
          "polygon": [
            {
              "x": 955,
              "y": 686
            },
            {
              "x": 987,
              "y": 676
            },
            {
              "x": 1019,
              "y": 691
            },
            {
              "x": 1023,
              "y": 717
            },
            {
              "x": 989,
              "y": 735
            },
            {
              "x": 956,
              "y": 714
            }
          ]
        }
      ]
    },
    {
      "id": 27,
      "name": "Obstacles",
      "type": "objectgroup",
      "color": "#77dd5544",
      "opacity": 0.35,
      "visible": true,
      "objects": [
        {
          "id": 28,
          "name": "obstacles-1",
          "x": 0,
          "y": 0,
          "polygon": [
            {
              "x": 869,
              "y": 535
            },
            {
              "x": 865.9243236600813,
              "y": 545.9446445864214
            },
            {
              "x": 857.0682665990679,
              "y": 555.5692035099693
            },
            {
              "x": 843.5,
              "y": 562.712812921102
            },
            {
              "x": 826.8560570610134,
              "y": 566.5138480963907
            },
            {
              "x": 809.1439429389866,
              "y": 566.5138480963907
            },
            {
              "x": 792.5,
              "y": 562.712812921102
            },
            {
              "x": 778.9317334009321,
              "y": 555.5692035099693
            },
            {
              "x": 770.0756763399187,
              "y": 545.9446445864214
            },
            {
              "x": 767,
              "y": 535
            },
            {
              "x": 770.0756763399187,
              "y": 524.0553554135786
            },
            {
              "x": 778.9317334009321,
              "y": 514.4307964900307
            },
            {
              "x": 792.5,
              "y": 507.28718707889794
            },
            {
              "x": 809.1439429389866,
              "y": 503.48615190360937
            },
            {
              "x": 826.8560570610134,
              "y": 503.4861519036093
            },
            {
              "x": 843.5,
              "y": 507.28718707889794
            },
            {
              "x": 857.0682665990679,
              "y": 514.4307964900307
            },
            {
              "x": 865.9243236600813,
              "y": 524.0553554135786
            }
          ]
        },
        {
          "id": 29,
          "name": "obstacles-2",
          "x": 0,
          "y": 0,
          "polygon": [
            {
              "x": 733,
              "y": 751
            },
            {
              "x": 730.2861679353659,
              "y": 759.5505035831417
            },
            {
              "x": 722.471999940354,
              "y": 767.0696902421635
            },
            {
              "x": 710.5,
              "y": 772.650635094611
            },
            {
              "x": 695.8141679950119,
              "y": 775.6201938253053
            },
            {
              "x": 680.1858320049881,
              "y": 775.6201938253053
            },
            {
              "x": 665.5,
              "y": 772.650635094611
            },
            {
              "x": 653.528000059646,
              "y": 767.0696902421635
            },
            {
              "x": 645.7138320646342,
              "y": 759.5505035831417
            },
            {
              "x": 643,
              "y": 751
            },
            {
              "x": 645.7138320646341,
              "y": 742.4494964168583
            },
            {
              "x": 653.5280000596459,
              "y": 734.9303097578365
            },
            {
              "x": 665.5,
              "y": 729.349364905389
            },
            {
              "x": 680.1858320049881,
              "y": 726.3798061746947
            },
            {
              "x": 695.8141679950119,
              "y": 726.3798061746947
            },
            {
              "x": 710.5,
              "y": 729.349364905389
            },
            {
              "x": 722.471999940354,
              "y": 734.9303097578365
            },
            {
              "x": 730.2861679353658,
              "y": 742.4494964168582
            }
          ]
        },
        {
          "id": 30,
          "name": "obstacles-3",
          "x": 0,
          "y": 0,
          "polygon": [
            {
              "x": 985,
              "y": 689
            },
            {
              "x": 983.3717007612195,
              "y": 697.8925237264674
            },
            {
              "x": 978.6831999642125,
              "y": 705.71247785185
            },
            {
              "x": 971.5,
              "y": 711.5166604983954
            },
            {
              "x": 962.6885007970071,
              "y": 714.6050015783175
            },
            {
              "x": 953.3114992029929,
              "y": 714.6050015783175
            },
            {
              "x": 944.5,
              "y": 711.5166604983954
            },
            {
              "x": 937.3168000357877,
              "y": 705.71247785185
            },
            {
              "x": 932.6282992387805,
              "y": 697.8925237264674
            },
            {
              "x": 931,
              "y": 689
            },
            {
              "x": 932.6282992387805,
              "y": 680.1074762735326
            },
            {
              "x": 937.3168000357875,
              "y": 672.28752214815
            },
            {
              "x": 944.5,
              "y": 666.4833395016046
            },
            {
              "x": 953.3114992029929,
              "y": 663.3949984216825
            },
            {
              "x": 962.6885007970071,
              "y": 663.3949984216825
            },
            {
              "x": 971.5,
              "y": 666.4833395016046
            },
            {
              "x": 978.6831999642123,
              "y": 672.28752214815
            },
            {
              "x": 983.3717007612195,
              "y": 680.1074762735326
            }
          ]
        },
        {
          "id": 31,
          "name": "obstacles-4",
          "x": 0,
          "y": 0,
          "polygon": [
            {
              "x": 1021,
              "y": 835
            },
            {
              "x": 1019.5526228988618,
              "y": 841.8404028665134
            },
            {
              "x": 1015.3850666348554,
              "y": 847.8557521937308
            },
            {
              "x": 1009,
              "y": 852.3205080756887
            },
            {
              "x": 1001.1675562640063,
              "y": 854.6961550602441
            },
            {
              "x": 992.8324437359937,
              "y": 854.6961550602441
            },
            {
              "x": 985,
              "y": 852.3205080756887
            },
            {
              "x": 978.6149333651446,
              "y": 847.8557521937308
            },
            {
              "x": 974.4473771011382,
              "y": 841.8404028665134
            },
            {
              "x": 973,
              "y": 835
            },
            {
              "x": 974.4473771011382,
              "y": 828.1595971334866
            },
            {
              "x": 978.6149333651446,
              "y": 822.1442478062692
            },
            {
              "x": 985,
              "y": 817.6794919243113
            },
            {
              "x": 992.8324437359937,
              "y": 815.3038449397559
            },
            {
              "x": 1001.1675562640063,
              "y": 815.3038449397559
            },
            {
              "x": 1009,
              "y": 817.6794919243113
            },
            {
              "x": 1015.3850666348554,
              "y": 822.1442478062692
            },
            {
              "x": 1019.5526228988618,
              "y": 828.1595971334866
            }
          ]
        }
      ]
    },
    {
      "id": 32,
      "name": "Spawn",
      "type": "objectgroup",
      "visible": true,
      "objects": [
        {
          "id": 33,
          "name": "spawn",
          "point": true,
          "x": 798.72,
          "y": 624.64,
          "properties": [
            {
              "name": "key",
              "type": "string",
              "value": "spawn"
            }
          ]
        }
      ]
    },
    {
      "id": 34,
      "name": "NPCs",
      "type": "objectgroup",
      "visible": true,
      "objects": [
        {
          "id": 35,
          "name": "marta",
          "point": true,
          "x": 678.912,
          "y": 470.016,
          "properties": [
            {
              "name": "key",
              "type": "string",
              "value": "marta"
            }
          ]
        },
        {
          "id": 36,
          "name": "otto",
          "point": true,
          "x": 1251.84,
          "y": 306.176,
          "properties": [
            {
              "name": "key",
              "type": "string",
              "value": "otto"
            }
          ]
        },
        {
          "id": 37,
          "name": "lina",
          "point": true,
          "x": 926.208,
          "y": 696.32,
          "properties": [
            {
              "name": "key",
              "type": "string",
              "value": "lina"
            }
          ]
        },
        {
          "id": 38,
          "name": "emil",
          "point": true,
          "x": 350.208,
          "y": 755.712,
          "properties": [
            {
              "name": "key",
              "type": "string",
              "value": "emil"
            }
          ]
        },
        {
          "id": 39,
          "name": "ada",
          "point": true,
          "x": 202.752,
          "y": 329.728,
          "properties": [
            {
              "name": "key",
              "type": "string",
              "value": "ada"
            }
          ]
        },
        {
          "id": 40,
          "name": "fritz",
          "point": true,
          "x": 1190.4,
          "y": 486.4,
          "properties": [
            {
              "name": "key",
              "type": "string",
              "value": "fritz"
            }
          ]
        },
        {
          "id": 41,
          "name": "greta",
          "point": true,
          "x": 635.904,
          "y": 723.968,
          "properties": [
            {
              "name": "key",
              "type": "string",
              "value": "greta"
            }
          ]
        },
        {
          "id": 42,
          "name": "inspector",
          "point": true,
          "x": 1311.744,
          "y": 320.512,
          "properties": [
            {
              "name": "key",
              "type": "string",
              "value": "inspector"
            }
          ]
        }
      ]
    },
    {
      "id": 43,
      "name": "Objects",
      "type": "objectgroup",
      "visible": true,
      "objects": [
        {
          "id": 44,
          "name": "lindenhafen-platform-ticket",
          "point": true,
          "x": 1285.632,
          "y": 355.328,
          "properties": [
            {
              "name": "key",
              "type": "string",
              "value": "lindenhafen-platform-ticket"
            }
          ]
        },
        {
          "id": 45,
          "name": "lindenhafen-cafe-receipt",
          "point": true,
          "x": 703.488,
          "y": 500.736,
          "properties": [
            {
              "name": "key",
              "type": "string",
              "value": "lindenhafen-cafe-receipt"
            }
          ]
        },
        {
          "id": 46,
          "name": "lindenhafen-market-crate",
          "point": true,
          "x": 1170.432,
          "y": 521.216,
          "properties": [
            {
              "name": "key",
              "type": "string",
              "value": "lindenhafen-market-crate"
            }
          ]
        },
        {
          "id": 47,
          "name": "lindenhafen-fountain",
          "point": true,
          "x": 818.6880000000001,
          "y": 535.552,
          "properties": [
            {
              "name": "key",
              "type": "string",
              "value": "lindenhafen-fountain"
            }
          ]
        },
        {
          "id": 48,
          "name": "lindenhafen-noticeboard",
          "point": true,
          "x": 1242.624,
          "y": 335.872,
          "properties": [
            {
              "name": "key",
              "type": "string",
              "value": "lindenhafen-noticeboard"
            }
          ]
        },
        {
          "id": 49,
          "name": "lindenhafen-parcel",
          "point": true,
          "x": 1021.44,
          "y": 760.832,
          "properties": [
            {
              "name": "key",
              "type": "string",
              "value": "lindenhafen-parcel"
            }
          ]
        },
        {
          "id": 50,
          "name": "lindenhafen-workbench",
          "point": true,
          "x": 370.176,
          "y": 781.312,
          "properties": [
            {
              "name": "key",
              "type": "string",
              "value": "lindenhafen-workbench"
            }
          ]
        },
        {
          "id": 51,
          "name": "lindenhafen-garden",
          "point": true,
          "x": 637.4399999999999,
          "y": 693.248,
          "properties": [
            {
              "name": "key",
              "type": "string",
              "value": "lindenhafen-garden"
            }
          ]
        }
      ]
    }
  ]
}
