{
  "type": "map",
  "version": "1.10",
  "tiledversion": "1.11.2",
  "orientation": "orthogonal",
  "renderorder": "right-down",
  "infinite": false,
  "width": 96,
  "height": 64,
  "tilewidth": 16,
  "tileheight": 16,
  "nextobjectid": 42,
  "nextlayerid": 42,
  "properties": [
    {
      "name": "mapId",
      "type": "string",
      "value": "nebelstadt"
    },
    {
      "name": "navigationVersion",
      "type": "int",
      "value": 1
    }
  ],
  "layers": [
    {
      "id": 1,
      "name": "Painting",
      "type": "imagelayer",
      "image": "../../web/public/assets/nebelstadt-terrain.webp",
      "visible": true
    },
    {
      "id": 2,
      "name": "Walkable",
      "type": "objectgroup",
      "color": "#7700aa55",
      "opacity": 0.35,
      "visible": true,
      "objects": [
        {
          "id": 3,
          "name": "walkable-1",
          "x": 0,
          "y": 0,
          "polygon": [
            {
              "x": 429,
              "y": 418
            },
            {
              "x": 473,
              "y": 382
            },
            {
              "x": 552,
              "y": 357
            },
            {
              "x": 586,
              "y": 309
            },
            {
              "x": 641,
              "y": 297
            },
            {
              "x": 683,
              "y": 312
            },
            {
              "x": 843,
              "y": 309
            },
            {
              "x": 887,
              "y": 295
            },
            {
              "x": 943,
              "y": 333
            },
            {
              "x": 996,
              "y": 365
            },
            {
              "x": 1041,
              "y": 413
            },
            {
              "x": 1048,
              "y": 463
            },
            {
              "x": 1007,
              "y": 507
            },
            {
              "x": 964,
              "y": 544
            },
            {
              "x": 940,
              "y": 578
            },
            {
              "x": 894,
              "y": 596
            },
            {
              "x": 837,
              "y": 621
            },
            {
              "x": 759,
              "y": 629
            },
            {
              "x": 704,
              "y": 613
            },
            {
              "x": 652,
              "y": 625
            },
            {
              "x": 598,
              "y": 623
            },
            {
              "x": 547,
              "y": 607
            },
            {
              "x": 530,
              "y": 565
            },
            {
              "x": 501,
              "y": 529
            },
            {
              "x": 455,
              "y": 505
            },
            {
              "x": 429,
              "y": 468
            }
          ]
        },
        {
          "id": 4,
          "name": "walkable-2",
          "x": 0,
          "y": 0,
          "polygon": [
            {
              "x": 123,
              "y": 454
            },
            {
              "x": 171,
              "y": 466
            },
            {
              "x": 219,
              "y": 464
            },
            {
              "x": 281,
              "y": 456
            },
            {
              "x": 359,
              "y": 443
            },
            {
              "x": 398,
              "y": 415
            },
            {
              "x": 414,
              "y": 379
            },
            {
              "x": 366,
              "y": 316
            },
            {
              "x": 377,
              "y": 295
            },
            {
              "x": 403,
              "y": 291
            },
            {
              "x": 472,
              "y": 361
            },
            {
              "x": 490,
              "y": 391
            },
            {
              "x": 460,
              "y": 431
            },
            {
              "x": 428,
              "y": 463
            },
            {
              "x": 389,
              "y": 483
            },
            {
              "x": 346,
              "y": 502
            },
            {
              "x": 281,
              "y": 510
            },
            {
              "x": 208,
              "y": 512
            },
            {
              "x": 152,
              "y": 494
            }
          ]
        },
        {
          "id": 5,
          "name": "walkable-3",
          "x": 0,
          "y": 0,
          "polygon": [
            {
              "x": 704,
              "y": 307
            },
            {
              "x": 733,
              "y": 277
            },
            {
              "x": 748,
              "y": 235
            },
            {
              "x": 782,
              "y": 235
            },
            {
              "x": 809,
              "y": 268
            },
            {
              "x": 822,
              "y": 302
            },
            {
              "x": 785,
              "y": 321
            },
            {
              "x": 744,
              "y": 326
            }
          ]
        },
        {
          "id": 6,
          "name": "walkable-4",
          "x": 0,
          "y": 0,
          "polygon": [
            {
              "x": 561,
              "y": 327
            },
            {
              "x": 576,
              "y": 298
            },
            {
              "x": 572,
              "y": 257
            },
            {
              "x": 552,
              "y": 214
            },
            {
              "x": 576,
              "y": 200
            },
            {
              "x": 597,
              "y": 230
            },
            {
              "x": 617,
              "y": 266
            },
            {
              "x": 635,
              "y": 297
            },
            {
              "x": 610,
              "y": 330
            }
          ]
        },
        {
          "id": 7,
          "name": "walkable-5",
          "x": 0,
          "y": 0,
          "polygon": [
            {
              "x": 851,
              "y": 316
            },
            {
              "x": 879,
              "y": 277
            },
            {
              "x": 866,
              "y": 237
            },
            {
              "x": 864,
              "y": 209
            },
            {
              "x": 884,
              "y": 190
            },
            {
              "x": 914,
              "y": 219
            },
            {
              "x": 929,
              "y": 271
            },
            {
              "x": 986,
              "y": 308
            },
            {
              "x": 1045,
              "y": 337
            },
            {
              "x": 1116,
              "y": 383
            },
            {
              "x": 1157,
              "y": 416
            },
            {
              "x": 1140,
              "y": 455
            },
            {
              "x": 1103,
              "y": 456
            },
            {
              "x": 1071,
              "y": 413
            },
            {
              "x": 1016,
              "y": 375
            },
            {
              "x": 964,
              "y": 348
            },
            {
              "x": 910,
              "y": 342
            }
          ]
        },
        {
          "id": 8,
          "name": "walkable-6",
          "x": 0,
          "y": 0,
          "polygon": [
            {
              "x": 1109,
              "y": 420
            },
            {
              "x": 1151,
              "y": 402
            },
            {
              "x": 1189,
              "y": 427
            },
            {
              "x": 1229,
              "y": 416
            },
            {
              "x": 1287,
              "y": 390
            },
            {
              "x": 1353,
              "y": 360
            },
            {
              "x": 1389,
              "y": 350
            },
            {
              "x": 1417,
              "y": 369
            },
            {
              "x": 1391,
              "y": 406
            },
            {
              "x": 1340,
              "y": 429
            },
            {
              "x": 1267,
              "y": 466
            },
            {
              "x": 1236,
              "y": 483
            },
            {
              "x": 1189,
              "y": 468
            },
            {
              "x": 1152,
              "y": 450
            }
          ]
        },
        {
          "id": 9,
          "name": "walkable-7",
          "x": 0,
          "y": 0,
          "polygon": [
            {
              "x": 1028,
              "y": 509
            },
            {
              "x": 1079,
              "y": 493
            },
            {
              "x": 1135,
              "y": 520
            },
            {
              "x": 1190,
              "y": 551
            },
            {
              "x": 1253,
              "y": 579
            },
            {
              "x": 1320,
              "y": 613
            },
            {
              "x": 1391,
              "y": 650
            },
            {
              "x": 1460,
              "y": 690
            },
            {
              "x": 1511,
              "y": 720
            },
            {
              "x": 1490,
              "y": 756
            },
            {
              "x": 1416,
              "y": 720
            },
            {
              "x": 1334,
              "y": 677
            },
            {
              "x": 1271,
              "y": 647
            },
            {
              "x": 1196,
              "y": 609
            },
            {
              "x": 1129,
              "y": 574
            },
            {
              "x": 1082,
              "y": 551
            },
            {
              "x": 1028,
              "y": 552
            }
          ]
        },
        {
          "id": 10,
          "name": "walkable-8",
          "x": 0,
          "y": 0,
          "polygon": [
            {
              "x": 143,
              "y": 733
            },
            {
              "x": 189,
              "y": 729
            },
            {
              "x": 255,
              "y": 750
            },
            {
              "x": 319,
              "y": 774
            },
            {
              "x": 382,
              "y": 758
            },
            {
              "x": 427,
              "y": 724
            },
            {
              "x": 468,
              "y": 693
            },
            {
              "x": 505,
              "y": 637
            },
            {
              "x": 539,
              "y": 606
            },
            {
              "x": 568,
              "y": 623
            },
            {
              "x": 539,
              "y": 666
            },
            {
              "x": 522,
              "y": 704
            },
            {
              "x": 496,
              "y": 739
            },
            {
              "x": 454,
              "y": 772
            },
            {
              "x": 415,
              "y": 798
            },
            {
              "x": 382,
              "y": 827
            },
            {
              "x": 334,
              "y": 830
            },
            {
              "x": 276,
              "y": 801
            },
            {
              "x": 214,
              "y": 785
            },
            {
              "x": 159,
              "y": 766
            }
          ]
        },
        {
          "id": 11,
          "name": "walkable-9",
          "x": 0,
          "y": 0,
          "polygon": [
            {
              "x": 548,
              "y": 601
            },
            {
              "x": 594,
              "y": 597
            },
            {
              "x": 623,
              "y": 617
            },
            {
              "x": 609,
              "y": 660
            },
            {
              "x": 579,
              "y": 689
            },
            {
              "x": 563,
              "y": 726
            },
            {
              "x": 595,
              "y": 761
            },
            {
              "x": 651,
              "y": 789
            },
            {
              "x": 712,
              "y": 812
            },
            {
              "x": 758,
              "y": 798
            },
            {
              "x": 792,
              "y": 754
            },
            {
              "x": 820,
              "y": 710
            },
            {
              "x": 822,
              "y": 666
            },
            {
              "x": 843,
              "y": 626
            },
            {
              "x": 878,
              "y": 620
            },
            {
              "x": 880,
              "y": 685
            },
            {
              "x": 854,
              "y": 739
            },
            {
              "x": 822,
              "y": 784
            },
            {
              "x": 796,
              "y": 829
            },
            {
              "x": 737,
              "y": 862
            },
            {
              "x": 676,
              "y": 844
            },
            {
              "x": 613,
              "y": 814
            },
            {
              "x": 558,
              "y": 779
            },
            {
              "x": 523,
              "y": 735
            },
            {
              "x": 529,
              "y": 685
            }
          ]
        },
        {
          "id": 12,
          "name": "walkable-10",
          "x": 0,
          "y": 0,
          "polygon": [
            {
              "x": 866,
              "y": 589
            },
            {
              "x": 902,
              "y": 553
            },
            {
              "x": 939,
              "y": 534
            },
            {
              "x": 981,
              "y": 549
            },
            {
              "x": 1022,
              "y": 563
            },
            {
              "x": 1036,
              "y": 592
            },
            {
              "x": 1000,
              "y": 615
            },
            {
              "x": 956,
              "y": 601
            },
            {
              "x": 917,
              "y": 618
            },
            {
              "x": 882,
              "y": 620
            }
          ]
        },
        {
          "id": 13,
          "name": "walkable-11",
          "x": 0,
          "y": 0,
          "polygon": [
            {
              "x": 969,
              "y": 493
            },
            {
              "x": 1014,
              "y": 466
            },
            {
              "x": 1063,
              "y": 480
            },
            {
              "x": 1106,
              "y": 508
            },
            {
              "x": 1109,
              "y": 543
            },
            {
              "x": 1064,
              "y": 576
            },
            {
              "x": 1028,
              "y": 561
            },
            {
              "x": 991,
              "y": 530
            }
          ]
        },
        {
          "id": 14,
          "name": "walkable-12",
          "x": 0,
          "y": 0,
          "polygon": [
            {
              "x": 807,
              "y": 594
            },
            {
              "x": 846,
              "y": 588
            },
            {
              "x": 880,
              "y": 605
            },
            {
              "x": 894,
              "y": 633
            },
            {
              "x": 880,
              "y": 662
            },
            {
              "x": 850,
              "y": 665
            },
            {
              "x": 833,
              "y": 635
            },
            {
              "x": 804,
              "y": 627
            }
          ]
        }
      ]
    },
    {
      "id": 15,
      "name": "Obstacles",
      "type": "objectgroup",
      "color": "#77dd5544",
      "opacity": 0.35,
      "visible": true,
      "objects": [
        {
          "id": 16,
          "name": "obstacles-1",
          "x": 0,
          "y": 0,
          "polygon": [
            {
              "x": 798,
              "y": 448
            },
            {
              "x": 794.6227867640109,
              "y": 461.6808057330268
            },
            {
              "x": 784.8984888146628,
              "y": 473.71150438746156
            },
            {
              "x": 770,
              "y": 482.6410161513775
            },
            {
              "x": 751.724297949348,
              "y": 487.39231012048833
            },
            {
              "x": 732.275702050652,
              "y": 487.39231012048833
            },
            {
              "x": 714,
              "y": 482.6410161513775
            },
            {
              "x": 699.1015111853372,
              "y": 473.71150438746156
            },
            {
              "x": 689.3772132359891,
              "y": 461.6808057330268
            },
            {
              "x": 686,
              "y": 448
            },
            {
              "x": 689.3772132359891,
              "y": 434.3191942669732
            },
            {
              "x": 699.1015111853372,
              "y": 422.28849561253844
            },
            {
              "x": 714,
              "y": 413.3589838486225
            },
            {
              "x": 732.275702050652,
              "y": 408.60768987951167
            },
            {
              "x": 751.724297949348,
              "y": 408.60768987951167
            },
            {
              "x": 770,
              "y": 413.3589838486225
            },
            {
              "x": 784.8984888146628,
              "y": 422.28849561253844
            },
            {
              "x": 794.6227867640108,
              "y": 434.3191942669732
            }
          ]
        },
        {
          "id": 17,
          "name": "obstacles-2",
          "x": 0,
          "y": 0,
          "polygon": [
            {
              "x": 664,
              "y": 379
            },
            {
              "x": 662.3717007612195,
              "y": 385.4983827231877
            },
            {
              "x": 657.6831999642125,
              "y": 391.21296458404424
            },
            {
              "x": 650.5,
              "y": 395.4544826719043
            },
            {
              "x": 641.6885007970071,
              "y": 397.71134730723196
            },
            {
              "x": 632.3114992029929,
              "y": 397.71134730723196
            },
            {
              "x": 623.5,
              "y": 395.4544826719043
            },
            {
              "x": 616.3168000357877,
              "y": 391.21296458404424
            },
            {
              "x": 611.6282992387805,
              "y": 385.4983827231877
            },
            {
              "x": 610,
              "y": 379
            },
            {
              "x": 611.6282992387805,
              "y": 372.5016172768123
            },
            {
              "x": 616.3168000357875,
              "y": 366.78703541595576
            },
            {
              "x": 623.5,
              "y": 362.5455173280957
            },
            {
              "x": 632.3114992029929,
              "y": 360.28865269276804
            },
            {
              "x": 641.6885007970071,
              "y": 360.28865269276804
            },
            {
              "x": 650.5,
              "y": 362.5455173280957
            },
            {
              "x": 657.6831999642123,
              "y": 366.78703541595576
            },
            {
              "x": 662.3717007612195,
              "y": 372.5016172768123
            }
          ]
        },
        {
          "id": 18,
          "name": "obstacles-3",
          "x": 0,
          "y": 0,
          "polygon": [
            {
              "x": 566,
              "y": 506
            },
            {
              "x": 564.2510860027913,
              "y": 513.182423009839
            },
            {
              "x": 559.2152888504504,
              "y": 519.4985398034173
            },
            {
              "x": 551.5,
              "y": 524.1865334794732
            },
            {
              "x": 542.0357971523409,
              "y": 526.6809628132563
            },
            {
              "x": 531.9642028476591,
              "y": 526.6809628132563
            },
            {
              "x": 522.5,
              "y": 524.1865334794732
            },
            {
              "x": 514.7847111495496,
              "y": 519.4985398034173
            },
            {
              "x": 509.74891399720866,
              "y": 513.182423009839
            },
            {
              "x": 508,
              "y": 506
            },
            {
              "x": 509.74891399720866,
              "y": 498.81757699016094
            },
            {
              "x": 514.7847111495496,
              "y": 492.5014601965827
            },
            {
              "x": 522.5,
              "y": 487.8134665205268
            },
            {
              "x": 531.9642028476591,
              "y": 485.3190371867436
            },
            {
              "x": 542.0357971523409,
              "y": 485.3190371867436
            },
            {
              "x": 551.5,
              "y": 487.8134665205268
            },
            {
              "x": 559.2152888504504,
              "y": 492.5014601965827
            },
            {
              "x": 564.2510860027913,
              "y": 498.81757699016094
            }
          ]
        },
        {
          "id": 19,
          "name": "obstacles-4",
          "x": 0,
          "y": 0,
          "polygon": [
            {
              "x": 740,
              "y": 566
            },
            {
              "x": 738.3113933820055,
              "y": 572.8404028665134
            },
            {
              "x": 733.4492444073314,
              "y": 578.8557521937308
            },
            {
              "x": 726,
              "y": 583.3205080756887
            },
            {
              "x": 716.862148974674,
              "y": 585.6961550602441
            },
            {
              "x": 707.137851025326,
              "y": 585.6961550602441
            },
            {
              "x": 698,
              "y": 583.3205080756887
            },
            {
              "x": 690.5507555926686,
              "y": 578.8557521937308
            },
            {
              "x": 685.6886066179945,
              "y": 572.8404028665134
            },
            {
              "x": 684,
              "y": 566
            },
            {
              "x": 685.6886066179945,
              "y": 559.1595971334866
            },
            {
              "x": 690.5507555926686,
              "y": 553.1442478062692
            },
            {
              "x": 698,
              "y": 548.6794919243113
            },
            {
              "x": 707.137851025326,
              "y": 546.3038449397559
            },
            {
              "x": 716.862148974674,
              "y": 546.3038449397559
            },
            {
              "x": 726,
              "y": 548.6794919243113
            },
            {
              "x": 733.4492444073314,
              "y": 553.1442478062692
            },
            {
              "x": 738.3113933820055,
              "y": 559.1595971334866
            }
          ]
        },
        {
          "id": 20,
          "name": "obstacles-5",
          "x": 0,
          "y": 0,
          "polygon": [
            {
              "x": 979,
              "y": 484
            },
            {
              "x": 977.3717007612195,
              "y": 491.18242300983906
            },
            {
              "x": 972.6831999642125,
              "y": 497.4985398034173
            },
            {
              "x": 965.5,
              "y": 502.1865334794732
            },
            {
              "x": 956.6885007970071,
              "y": 504.6809628132564
            },
            {
              "x": 947.3114992029929,
              "y": 504.6809628132564
            },
            {
              "x": 938.5,
              "y": 502.1865334794732
            },
            {
              "x": 931.3168000357877,
              "y": 497.4985398034173
            },
            {
              "x": 926.6282992387805,
              "y": 491.18242300983906
            },
            {
              "x": 925,
              "y": 484
            },
            {
              "x": 926.6282992387805,
              "y": 476.81757699016094
            },
            {
              "x": 931.3168000357875,
              "y": 470.5014601965827
            },
            {
              "x": 938.5,
              "y": 465.8134665205268
            },
            {
              "x": 947.3114992029929,
              "y": 463.3190371867436
            },
            {
              "x": 956.6885007970071,
              "y": 463.3190371867436
            },
            {
              "x": 965.5,
              "y": 465.8134665205268
            },
            {
              "x": 972.6831999642123,
              "y": 470.5014601965827
            },
            {
              "x": 977.3717007612195,
              "y": 476.81757699016094
            }
          ]
        },
        {
          "id": 21,
          "name": "obstacles-6",
          "x": 0,
          "y": 0,
          "polygon": [
            {
              "x": 959,
              "y": 560
            },
            {
              "x": 957.3717007612195,
              "y": 566.8404028665134
            },
            {
              "x": 952.6831999642125,
              "y": 572.8557521937308
            },
            {
              "x": 945.5,
              "y": 577.3205080756887
            },
            {
              "x": 936.6885007970071,
              "y": 579.6961550602441
            },
            {
              "x": 927.3114992029929,
              "y": 579.6961550602441
            },
            {
              "x": 918.5,
              "y": 577.3205080756887
            },
            {
              "x": 911.3168000357877,
              "y": 572.8557521937308
            },
            {
              "x": 906.6282992387805,
              "y": 566.8404028665134
            },
            {
              "x": 905,
              "y": 560
            },
            {
              "x": 906.6282992387805,
              "y": 553.1595971334866
            },
            {
              "x": 911.3168000357875,
              "y": 547.1442478062692
            },
            {
              "x": 918.5,
              "y": 542.6794919243113
            },
            {
              "x": 927.3114992029929,
              "y": 540.3038449397559
            },
            {
              "x": 936.6885007970071,
              "y": 540.3038449397559
            },
            {
              "x": 945.5,
              "y": 542.6794919243113
            },
            {
              "x": 952.6831999642123,
              "y": 547.1442478062692
            },
            {
              "x": 957.3717007612195,
              "y": 553.1595971334866
            }
          ]
        },
        {
          "id": 22,
          "name": "obstacles-7",
          "x": 0,
          "y": 0,
          "polygon": [
            {
              "x": 600,
              "y": 614
            },
            {
              "x": 698,
              "y": 635
            },
            {
              "x": 754,
              "y": 695
            },
            {
              "x": 738,
              "y": 785
            },
            {
              "x": 672,
              "y": 813
            },
            {
              "x": 565,
              "y": 765
            },
            {
              "x": 535,
              "y": 716
            },
            {
              "x": 540,
              "y": 659
            }
          ]
        }
      ]
    },
    {
      "id": 23,
      "name": "Spawn",
      "type": "objectgroup",
      "visible": true,
      "objects": [
        {
          "id": 24,
          "name": "spawn",
          "point": true,
          "x": 768,
          "y": 563.2,
          "properties": [
            {
              "name": "key",
              "type": "string",
              "value": "spawn"
            }
          ]
        }
      ]
    },
    {
      "id": 25,
      "name": "NPCs",
      "type": "objectgroup",
      "visible": true,
      "objects": [
        {
          "id": 26,
          "name": "marta",
          "point": true,
          "x": 454.65599999999995,
          "y": 501.76,
          "properties": [
            {
              "name": "key",
              "type": "string",
              "value": "marta"
            }
          ]
        },
        {
          "id": 27,
          "name": "otto",
          "point": true,
          "x": 1070.5919999999999,
          "y": 356.352,
          "properties": [
            {
              "name": "key",
              "type": "string",
              "value": "otto"
            }
          ]
        },
        {
          "id": 28,
          "name": "lina",
          "point": true,
          "x": 1320.96,
          "y": 616.448,
          "properties": [
            {
              "name": "key",
              "type": "string",
              "value": "lina"
            }
          ]
        },
        {
          "id": 29,
          "name": "emil",
          "point": true,
          "x": 394.752,
          "y": 751.616,
          "properties": [
            {
              "name": "key",
              "type": "string",
              "value": "emil"
            }
          ]
        },
        {
          "id": 30,
          "name": "ada",
          "point": true,
          "x": 525.312,
          "y": 370.688,
          "properties": [
            {
              "name": "key",
              "type": "string",
              "value": "ada"
            }
          ]
        },
        {
          "id": 31,
          "name": "fritz",
          "point": true,
          "x": 791.04,
          "y": 762.88,
          "properties": [
            {
              "name": "key",
              "type": "string",
              "value": "fritz"
            }
          ]
        },
        {
          "id": 32,
          "name": "greta",
          "point": true,
          "x": 967.6800000000001,
          "y": 573.44,
          "properties": [
            {
              "name": "key",
              "type": "string",
              "value": "greta"
            }
          ]
        },
        {
          "id": 33,
          "name": "inspector",
          "point": true,
          "x": 416.25600000000003,
          "y": 466.944,
          "properties": [
            {
              "name": "key",
              "type": "string",
              "value": "inspector"
            }
          ]
        },
        {
          "id": 34,
          "name": "elise",
          "point": true,
          "x": 769.5360000000001,
          "y": 286.72,
          "properties": [
            {
              "name": "key",
              "type": "string",
              "value": "elise"
            }
          ]
        }
      ]
    },
    {
      "id": 35,
      "name": "Objects",
      "type": "objectgroup",
      "visible": true,
      "objects": [
        {
          "id": 36,
          "name": "nebelstadt-repair-ledger",
          "point": true,
          "x": 437.76,
          "y": 785.408,
          "properties": [
            {
              "name": "key",
              "type": "string",
              "value": "nebelstadt-repair-ledger"
            }
          ]
        },
        {
          "id": 37,
          "name": "nebelstadt-council-board",
          "point": true,
          "x": 388.608,
          "y": 444.416,
          "properties": [
            {
              "name": "key",
              "type": "string",
              "value": "nebelstadt-council-board"
            }
          ]
        },
        {
          "id": 38,
          "name": "nebelstadt-signal-lantern",
          "point": true,
          "x": 1354.752,
          "y": 407.552,
          "properties": [
            {
              "name": "key",
              "type": "string",
              "value": "nebelstadt-signal-lantern"
            }
          ]
        },
        {
          "id": 39,
          "name": "nebelstadt-observatory",
          "point": true,
          "x": 769.5360000000001,
          "y": 271.36,
          "properties": [
            {
              "name": "key",
              "type": "string",
              "value": "nebelstadt-observatory"
            }
          ]
        },
        {
          "id": 40,
          "name": "nebelstadt-evidence-crate",
          "point": true,
          "x": 228.86399999999998,
          "y": 792.576,
          "properties": [
            {
              "name": "key",
              "type": "string",
              "value": "nebelstadt-evidence-crate"
            }
          ]
        },
        {
          "id": 41,
          "name": "nebelstadt-harbor-chart",
          "point": true,
          "x": 961.5360000000001,
          "y": 316.416,
          "properties": [
            {
              "name": "key",
              "type": "string",
              "value": "nebelstadt-harbor-chart"
            }
          ]
        }
      ]
    }
  ]
}
