{
  "type": "map",
  "version": "1.10",
  "tiledversion": "1.11.2",
  "orientation": "orthogonal",
  "renderorder": "right-down",
  "infinite": false,
  "width": 96,
  "height": 64,
  "tilewidth": 16,
  "tileheight": 16,
  "nextobjectid": 37,
  "nextlayerid": 37,
  "properties": [
    {
      "name": "mapId",
      "type": "string",
      "value": "waldruh"
    },
    {
      "name": "navigationVersion",
      "type": "int",
      "value": 1
    }
  ],
  "layers": [
    {
      "id": 1,
      "name": "Painting",
      "type": "imagelayer",
      "image": "../../web/public/assets/waldruh-terrain.webp",
      "visible": true
    },
    {
      "id": 2,
      "name": "Walkable",
      "type": "objectgroup",
      "color": "#7700aa55",
      "opacity": 0.35,
      "visible": true,
      "objects": [
        {
          "id": 3,
          "name": "walkable-1",
          "x": 0,
          "y": 0,
          "polygon": [
            {
              "x": 501,
              "y": 436
            },
            {
              "x": 547,
              "y": 391
            },
            {
              "x": 631,
              "y": 352
            },
            {
              "x": 655,
              "y": 312
            },
            {
              "x": 636,
              "y": 274
            },
            {
              "x": 649,
              "y": 232
            },
            {
              "x": 688,
              "y": 244
            },
            {
              "x": 716,
              "y": 301
            },
            {
              "x": 767,
              "y": 356
            },
            {
              "x": 862,
              "y": 326
            },
            {
              "x": 949,
              "y": 305
            },
            {
              "x": 1009,
              "y": 321
            },
            {
              "x": 977,
              "y": 369
            },
            {
              "x": 957,
              "y": 425
            },
            {
              "x": 955,
              "y": 490
            },
            {
              "x": 982,
              "y": 552
            },
            {
              "x": 959,
              "y": 594
            },
            {
              "x": 916,
              "y": 648
            },
            {
              "x": 871,
              "y": 686
            },
            {
              "x": 847,
              "y": 755
            },
            {
              "x": 803,
              "y": 805
            },
            {
              "x": 758,
              "y": 839
            },
            {
              "x": 741,
              "y": 930
            },
            {
              "x": 761,
              "y": 1010
            },
            {
              "x": 646,
              "y": 1010
            },
            {
              "x": 629,
              "y": 923
            },
            {
              "x": 587,
              "y": 867
            },
            {
              "x": 520,
              "y": 825
            },
            {
              "x": 463,
              "y": 809
            },
            {
              "x": 402,
              "y": 778
            },
            {
              "x": 393,
              "y": 733
            },
            {
              "x": 431,
              "y": 679
            },
            {
              "x": 463,
              "y": 622
            },
            {
              "x": 485,
              "y": 547
            },
            {
              "x": 498,
              "y": 485
            }
          ]
        },
        {
          "id": 4,
          "name": "walkable-2",
          "x": 0,
          "y": 0,
          "polygon": [
            {
              "x": 173,
              "y": 344
            },
            {
              "x": 250,
              "y": 344
            },
            {
              "x": 358,
              "y": 327
            },
            {
              "x": 434,
              "y": 326
            },
            {
              "x": 488,
              "y": 354
            },
            {
              "x": 535,
              "y": 377
            },
            {
              "x": 574,
              "y": 385
            },
            {
              "x": 579,
              "y": 426
            },
            {
              "x": 541,
              "y": 453
            },
            {
              "x": 449,
              "y": 432
            },
            {
              "x": 412,
              "y": 457
            },
            {
              "x": 351,
              "y": 439
            },
            {
              "x": 314,
              "y": 413
            },
            {
              "x": 235,
              "y": 396
            },
            {
              "x": 190,
              "y": 378
            }
          ]
        },
        {
          "id": 5,
          "name": "walkable-3",
          "x": 0,
          "y": 0,
          "polygon": [
            {
              "x": 886,
              "y": 269
            },
            {
              "x": 927,
              "y": 258
            },
            {
              "x": 1002,
              "y": 265
            },
            {
              "x": 1102,
              "y": 280
            },
            {
              "x": 1197,
              "y": 296
            },
            {
              "x": 1300,
              "y": 301
            },
            {
              "x": 1320,
              "y": 322
            },
            {
              "x": 1280,
              "y": 339
            },
            {
              "x": 1168,
              "y": 324
            },
            {
              "x": 1082,
              "y": 330
            },
            {
              "x": 1018,
              "y": 318
            },
            {
              "x": 991,
              "y": 343
            },
            {
              "x": 955,
              "y": 341
            },
            {
              "x": 975,
              "y": 300
            },
            {
              "x": 909,
              "y": 292
            }
          ]
        },
        {
          "id": 6,
          "name": "walkable-4",
          "x": 0,
          "y": 0,
          "polygon": [
            {
              "x": 945,
              "y": 422
            },
            {
              "x": 1008,
              "y": 402
            },
            {
              "x": 1072,
              "y": 424
            },
            {
              "x": 1066,
              "y": 489
            },
            {
              "x": 1104,
              "y": 524
            },
            {
              "x": 1172,
              "y": 564
            },
            {
              "x": 1205,
              "y": 584
            },
            {
              "x": 1149,
              "y": 618
            },
            {
              "x": 1078,
              "y": 596
            },
            {
              "x": 1008,
              "y": 565
            },
            {
              "x": 970,
              "y": 582
            },
            {
              "x": 955,
              "y": 510
            }
          ]
        },
        {
          "id": 7,
          "name": "walkable-5",
          "x": 0,
          "y": 0,
          "polygon": [
            {
              "x": 1121,
              "y": 570
            },
            {
              "x": 1204,
              "y": 560
            },
            {
              "x": 1281,
              "y": 584
            },
            {
              "x": 1369,
              "y": 605
            },
            {
              "x": 1405,
              "y": 637
            },
            {
              "x": 1370,
              "y": 665
            },
            {
              "x": 1300,
              "y": 640
            },
            {
              "x": 1244,
              "y": 618
            },
            {
              "x": 1188,
              "y": 604
            },
            {
              "x": 1125,
              "y": 616
            }
          ]
        },
        {
          "id": 8,
          "name": "walkable-6",
          "x": 0,
          "y": 0,
          "polygon": [
            {
              "x": 1366,
              "y": 626
            },
            {
              "x": 1414,
              "y": 625
            },
            {
              "x": 1459,
              "y": 648
            },
            {
              "x": 1473,
              "y": 682
            },
            {
              "x": 1433,
              "y": 700
            },
            {
              "x": 1385,
              "y": 675
            },
            {
              "x": 1355,
              "y": 659
            }
          ]
        },
        {
          "id": 9,
          "name": "walkable-7",
          "x": 0,
          "y": 0,
          "polygon": [
            {
              "x": 397,
              "y": 680
            },
            {
              "x": 440,
              "y": 647
            },
            {
              "x": 475,
              "y": 601
            },
            {
              "x": 508,
              "y": 616
            },
            {
              "x": 500,
              "y": 665
            },
            {
              "x": 478,
              "y": 709
            },
            {
              "x": 430,
              "y": 742
            },
            {
              "x": 389,
              "y": 756
            },
            {
              "x": 349,
              "y": 738
            },
            {
              "x": 340,
              "y": 717
            }
          ]
        },
        {
          "id": 10,
          "name": "walkable-8",
          "x": 0,
          "y": 0,
          "polygon": [
            {
              "x": 467,
              "y": 638
            },
            {
              "x": 518,
              "y": 604
            },
            {
              "x": 560,
              "y": 615
            },
            {
              "x": 570,
              "y": 657
            },
            {
              "x": 538,
              "y": 707
            },
            {
              "x": 516,
              "y": 763
            },
            {
              "x": 558,
              "y": 801
            },
            {
              "x": 647,
              "y": 823
            },
            {
              "x": 725,
              "y": 814
            },
            {
              "x": 779,
              "y": 782
            },
            {
              "x": 839,
              "y": 774
            },
            {
              "x": 857,
              "y": 725
            },
            {
              "x": 883,
              "y": 681
            },
            {
              "x": 911,
              "y": 650
            },
            {
              "x": 942,
              "y": 670
            },
            {
              "x": 924,
              "y": 724
            },
            {
              "x": 901,
              "y": 781
            },
            {
              "x": 872,
              "y": 819
            },
            {
              "x": 810,
              "y": 852
            },
            {
              "x": 725,
              "y": 875
            },
            {
              "x": 626,
              "y": 866
            },
            {
              "x": 544,
              "y": 845
            },
            {
              "x": 469,
              "y": 820
            },
            {
              "x": 429,
              "y": 786
            },
            {
              "x": 422,
              "y": 747
            }
          ]
        },
        {
          "id": 11,
          "name": "walkable-9",
          "x": 0,
          "y": 0,
          "polygon": [
            {
              "x": 407,
              "y": 786
            },
            {
              "x": 443,
              "y": 803
            },
            {
              "x": 459,
              "y": 846
            },
            {
              "x": 428,
              "y": 883
            },
            {
              "x": 389,
              "y": 881
            },
            {
              "x": 350,
              "y": 917
            },
            {
              "x": 303,
              "y": 929
            },
            {
              "x": 252,
              "y": 901
            },
            {
              "x": 232,
              "y": 868
            },
            {
              "x": 252,
              "y": 831
            },
            {
              "x": 312,
              "y": 810
            },
            {
              "x": 369,
              "y": 803
            }
          ]
        },
        {
          "id": 12,
          "name": "walkable-10",
          "x": 0,
          "y": 0,
          "polygon": [
            {
              "x": 426,
              "y": 789
            },
            {
              "x": 461,
              "y": 808
            },
            {
              "x": 480,
              "y": 837
            },
            {
              "x": 463,
              "y": 861
            },
            {
              "x": 444,
              "y": 840
            },
            {
              "x": 425,
              "y": 817
            },
            {
              "x": 409,
              "y": 798
            }
          ]
        },
        {
          "id": 13,
          "name": "walkable-11",
          "x": 0,
          "y": 0,
          "polygon": [
            {
              "x": 908,
              "y": 714
            },
            {
              "x": 942,
              "y": 708
            },
            {
              "x": 964,
              "y": 744
            },
            {
              "x": 953,
              "y": 785
            },
            {
              "x": 981,
              "y": 825
            },
            {
              "x": 994,
              "y": 865
            },
            {
              "x": 980,
              "y": 904
            },
            {
              "x": 947,
              "y": 910
            },
            {
              "x": 926,
              "y": 877
            },
            {
              "x": 926,
              "y": 832
            },
            {
              "x": 906,
              "y": 794
            },
            {
              "x": 885,
              "y": 782
            }
          ]
        }
      ]
    },
    {
      "id": 14,
      "name": "Obstacles",
      "type": "objectgroup",
      "color": "#77dd5544",
      "opacity": 0.35,
      "visible": true,
      "objects": [
        {
          "id": 15,
          "name": "obstacles-1",
          "x": 0,
          "y": 0,
          "polygon": [
            {
              "x": 832,
              "y": 452
            },
            {
              "x": 825.2455735280217,
              "y": 475.9414100327968
            },
            {
              "x": 805.7969776293255,
              "y": 496.99513267805776
            },
            {
              "x": 776,
              "y": 512.6217782649107
            },
            {
              "x": 739.4485958986962,
              "y": 520.9365427108546
            },
            {
              "x": 700.5514041013038,
              "y": 520.9365427108546
            },
            {
              "x": 664,
              "y": 512.6217782649107
            },
            {
              "x": 634.2030223706745,
              "y": 496.99513267805776
            },
            {
              "x": 614.7544264719783,
              "y": 475.9414100327968
            },
            {
              "x": 608,
              "y": 452
            },
            {
              "x": 614.7544264719783,
              "y": 428.0585899672032
            },
            {
              "x": 634.2030223706745,
              "y": 407.00486732194224
            },
            {
              "x": 664,
              "y": 391.3782217350893
            },
            {
              "x": 700.5514041013038,
              "y": 383.06345728914545
            },
            {
              "x": 739.4485958986961,
              "y": 383.06345728914545
            },
            {
              "x": 776,
              "y": 391.3782217350893
            },
            {
              "x": 805.7969776293255,
              "y": 407.00486732194224
            },
            {
              "x": 825.2455735280217,
              "y": 428.05858996720315
            }
          ]
        },
        {
          "id": 16,
          "name": "obstacles-2",
          "x": 0,
          "y": 0,
          "polygon": [
            {
              "x": 549,
              "y": 613
            },
            {
              "x": 655,
              "y": 602
            },
            {
              "x": 694,
              "y": 648
            },
            {
              "x": 686,
              "y": 698
            },
            {
              "x": 603,
              "y": 721
            },
            {
              "x": 549,
              "y": 704
            }
          ]
        },
        {
          "id": 17,
          "name": "obstacles-3",
          "x": 0,
          "y": 0,
          "polygon": [
            {
              "x": 756,
              "y": 616
            },
            {
              "x": 830,
              "y": 604
            },
            {
              "x": 889,
              "y": 628
            },
            {
              "x": 881,
              "y": 710
            },
            {
              "x": 808,
              "y": 739
            },
            {
              "x": 755,
              "y": 705
            }
          ]
        },
        {
          "id": 18,
          "name": "obstacles-4",
          "x": 0,
          "y": 0,
          "polygon": [
            {
              "x": 685,
              "y": 682
            },
            {
              "x": 769,
              "y": 671
            },
            {
              "x": 830,
              "y": 699
            },
            {
              "x": 825,
              "y": 771
            },
            {
              "x": 758,
              "y": 799
            },
            {
              "x": 680,
              "y": 767
            }
          ]
        },
        {
          "id": 19,
          "name": "obstacles-5",
          "x": 0,
          "y": 0,
          "polygon": [
            {
              "x": 334,
              "y": 852
            },
            {
              "x": 332.25108600279134,
              "y": 859.5244431531647
            },
            {
              "x": 327.21528885045035,
              "y": 866.1413274131039
            },
            {
              "x": 319.5,
              "y": 871.0525588832577
            },
            {
              "x": 310.035797152341,
              "y": 873.6657705662685
            },
            {
              "x": 299.964202847659,
              "y": 873.6657705662685
            },
            {
              "x": 290.5,
              "y": 871.0525588832577
            },
            {
              "x": 282.78471114954965,
              "y": 866.1413274131039
            },
            {
              "x": 277.74891399720866,
              "y": 859.5244431531647
            },
            {
              "x": 276,
              "y": 852
            },
            {
              "x": 277.74891399720866,
              "y": 844.4755568468353
            },
            {
              "x": 282.78471114954965,
              "y": 837.8586725868961
            },
            {
              "x": 290.5,
              "y": 832.9474411167423
            },
            {
              "x": 299.964202847659,
              "y": 830.3342294337315
            },
            {
              "x": 310.035797152341,
              "y": 830.3342294337315
            },
            {
              "x": 319.5,
              "y": 832.9474411167423
            },
            {
              "x": 327.21528885045035,
              "y": 837.8586725868961
            },
            {
              "x": 332.25108600279134,
              "y": 844.4755568468353
            }
          ]
        }
      ]
    },
    {
      "id": 20,
      "name": "Spawn",
      "type": "objectgroup",
      "visible": true,
      "objects": [
        {
          "id": 21,
          "name": "spawn",
          "point": true,
          "x": 798.72,
          "y": 552.96,
          "properties": [
            {
              "name": "key",
              "type": "string",
              "value": "spawn"
            }
          ]
        }
      ]
    },
    {
      "id": 22,
      "name": "NPCs",
      "type": "objectgroup",
      "visible": true,
      "objects": [
        {
          "id": 23,
          "name": "marta",
          "point": true,
          "x": 430.08000000000004,
          "y": 354.304,
          "properties": [
            {
              "name": "key",
              "type": "string",
              "value": "marta"
            }
          ]
        },
        {
          "id": 24,
          "name": "otto",
          "point": true,
          "x": 1121.28,
          "y": 314.368,
          "properties": [
            {
              "name": "key",
              "type": "string",
              "value": "otto"
            }
          ]
        },
        {
          "id": 25,
          "name": "lina",
          "point": true,
          "x": 660.48,
          "y": 888.832,
          "properties": [
            {
              "name": "key",
              "type": "string",
              "value": "lina"
            }
          ]
        },
        {
          "id": 26,
          "name": "emil",
          "point": true,
          "x": 460.79999999999995,
          "y": 672.768,
          "properties": [
            {
              "name": "key",
              "type": "string",
              "value": "emil"
            }
          ]
        },
        {
          "id": 27,
          "name": "ada",
          "point": true,
          "x": 371.712,
          "y": 856.064,
          "properties": [
            {
              "name": "key",
              "type": "string",
              "value": "ada"
            }
          ]
        },
        {
          "id": 28,
          "name": "fritz",
          "point": true,
          "x": 909.3119999999999,
          "y": 736.256,
          "properties": [
            {
              "name": "key",
              "type": "string",
              "value": "fritz"
            }
          ]
        },
        {
          "id": 29,
          "name": "greta",
          "point": true,
          "x": 978.432,
          "y": 835.584,
          "properties": [
            {
              "name": "key",
              "type": "string",
              "value": "greta"
            }
          ]
        },
        {
          "id": 30,
          "name": "inspector",
          "point": true,
          "x": 1147.392,
          "y": 307.2,
          "properties": [
            {
              "name": "key",
              "type": "string",
              "value": "inspector"
            }
          ]
        }
      ]
    },
    {
      "id": 31,
      "name": "Objects",
      "type": "objectgroup",
      "visible": true,
      "objects": [
        {
          "id": 32,
          "name": "waldruh-clock",
          "point": true,
          "x": 1184.256,
          "y": 561.152,
          "properties": [
            {
              "name": "key",
              "type": "string",
              "value": "waldruh-clock"
            }
          ]
        },
        {
          "id": 33,
          "name": "waldruh-housing-board",
          "point": true,
          "x": 582.144,
          "y": 371.712,
          "properties": [
            {
              "name": "key",
              "type": "string",
              "value": "waldruh-housing-board"
            }
          ]
        },
        {
          "id": 34,
          "name": "waldruh-herb-garden",
          "point": true,
          "x": 978.432,
          "y": 800.768,
          "properties": [
            {
              "name": "key",
              "type": "string",
              "value": "waldruh-herb-garden"
            }
          ]
        },
        {
          "id": 35,
          "name": "waldruh-route-sign",
          "point": true,
          "x": 961.5360000000001,
          "y": 302.08,
          "properties": [
            {
              "name": "key",
              "type": "string",
              "value": "waldruh-route-sign"
            }
          ]
        },
        {
          "id": 36,
          "name": "waldruh-memory-stone",
          "point": true,
          "x": 299.52,
          "y": 846.848,
          "properties": [
            {
              "name": "key",
              "type": "string",
              "value": "waldruh-memory-stone"
            }
          ]
        }
      ]
    }
  ]
}
